icons/person-add-16.svg

<svg xmlns="http://www.w3.org/2000/svg" width="16" height="16" viewBox="0 0 16 16"><path d="M7.9 8.548h-.001a5.528 5.528 0 013.1 4.659.75.75 0 11-1.498.086A4.01 4.01 0 005.5 9.5a4.01 4.01 0 00-4.001 3.793.75.75 0 11-1.498-.085 5.527 5.527 0 013.1-4.66 3.5 3.5 0 114.799 0zM13.25 0a.75.75 0 01.75.75V2h1.25a.75.75 0 010 1.5H14v1.25a.75.75 0 01-1.5 0V3.5h-1.25a.75.75 0 010-1.5h1.25V.75a.75.75 0 01.75-.75zM5.5 4a2 2 0 10-.001 3.999A2 2 0 005.5 4z"/></svg>

<svg xmlns="http://www.w3.org/2000/svg" width="16" height="16" viewBox="0 0 16 16">
  <defs/>
  <path d="M7.9,8.548 L7.899,8.548 C9.7,9.424 10.886,11.207 10.999,13.207 C11.023,13.621 10.707,13.975 10.293,13.999 C9.879,14.023 9.525,13.707 9.501,13.293 C9.386,11.167 7.629,9.502 5.5,9.5 C3.371,9.502 1.614,11.167 1.499,13.293 C1.476,13.707 1.121,14.023 0.707,14 C0.294,13.976 -0.022,13.622 0.001,13.208 C0.113,11.208 1.299,9.425 3.101,8.548 C2.056,7.564 1.718,6.043 2.247,4.709 C2.776,3.376 4.066,2.5 5.501,2.5 C6.935,2.5 8.225,3.376 8.754,4.709 C9.283,6.043 8.945,7.564 7.9,8.548 Z M13.25,0 C13.664,0 14,0.336 14,0.75 L14,2 L15.25,2 C15.664,2 16,2.336 16,2.75 C16,3.164 15.664,3.5 15.25,3.5 L14,3.5 L14,4.75 C14,5.164 13.664,5.5 13.25,5.5 C12.836,5.5 12.5,5.164 12.5,4.75 L12.5,3.5 L11.25,3.5 C10.836,3.5 10.5,3.164 10.5,2.75 C10.5,2.336 10.836,2 11.25,2 L12.5,2 L12.5,0.75 C12.5,0.336 12.836,0 13.25,0 Z M5.5,4 C4.395,4 3.5,4.895 3.5,6 C3.5,7.105 4.395,8 5.5,8 C6.605,8 7.5,7.105 7.5,6 C7.5,4.895 6.605,4 5.5,4 Z"/>
</svg>
